X:851
T:Smith of Killiechassie, The
R:Reel
B:The Athole Collection
M:C|
L:1/8
K:A Minor
A/A/A AB e2 e^c|d2 dg B/B/B BG|A/A/A AB e2 e^c|de dB A/A/A AG:|
g2 ^fg aefd|g2 gb B/B/B ~BG|gg ^fg aefd|gedB A/A/A AG||

